art/calendar.svg

<svg version="1.0" viewBox="0 0 946 163" xmlns="http://www.w3.org/2000/svg">
  <defs>
    <radialGradient gradientUnits="userSpaceOnUse" cx="85.162" cy="78.367" r="65.887" id="gradient-1">
      <stop offset="0" style="stop-color: rgb(142, 9, 9);"></stop>
      <stop offset="1" style="stop-color: rgb(77, 41, 41);"></stop>
    </radialGradient>
    <linearGradient gradientUnits="userSpaceOnUse" x1="544.596" y1="33.117" x2="544.596" y2="135.2" id="gradient-0" gradientTransform="matrix(0.256082, -0.966655, 2.727694, 0.722608, 145.948427, 559.745042)">
      <stop offset="0" style="stop-color: rgb(142, 9, 9);"></stop>
      <stop offset="1" style="stop-color: rgb(77, 41, 41);"></stop>
    </linearGradient>
    <linearGradient gradientUnits="userSpaceOnUse" x1="472" y1="64.487" x2="472" y2="134" id="gradient-2">
      <stop offset="0" style="stop-color: rgb(100% 100% 100%)"></stop>
      <stop offset="1" style="stop-color: rgb(56.687% 56.687% 56.687%)"></stop>
    </linearGradient>
    <radialGradient gradientUnits="userSpaceOnUse" cx="472" cy="99.244" r="97" id="gradient-3">
      <stop offset="0" style="stop-color: rgb(77, 41, 41);"></stop>
      <stop offset="1" style="stop-color: rgb(142, 9, 9);"></stop>
    </radialGradient>
  </defs>
  <path d="M 199.5 34.4 C 176.7 39.9 161.2 63.3 163.4 88.9 C 165.8 117.8 184.8 135.2 213.9 135.2 C 223.7 135.2 229.4 134.2 236.5 131.3 C 247.7 126.6 257.3 115.3 260.5 102.9 L 261.8 98 L 251.7 98.1 L 241.5 98.1 L 238.7 103.9 C 231.2 119.8 207.6 122.8 193.8 109.6 C 186.9 103 183.7 95.5 183.2 84.3 C 182.8 75.7 183 74.7 185.7 68.8 C 191.2 57.1 200.9 50.9 213.6 50.8 C 226.2 50.7 237 57.4 240.3 67.3 L 241.7 71.5 L 251.8 71.8 L 261.8 72.1 L 260.4 65.9 C 257.4 53.2 249.8 43.9 237.7 38.2 C 227.5 33.4 210.6 31.7 199.5 34.4 Z M 301.5 35.2 C 298.4 43.5 266 133.4 266 133.7 C 266 133.9 270.8 133.9 276.7 133.8 L 287.3 133.5 L 300.4 94.8 C 307.6 73.5 313.8 56 314.1 56 C 314.4 56 321 73.4 328.6 94.7 L 342.5 133.5 L 353.8 133.8 C 359.9 133.9 365 133.7 365 133.3 C 365 132.9 356.3 110.4 345.7 83.5 L 326.5 34.5 L 314.2 34.2 C 305 34 301.8 34.3 301.5 35.2 Z M 375 69.5 L 375 105 L 395 105 L 395 34 L 375 34 L 375 69.5 Z M 458 44 L 458 54 L 507.7 54.2 L 557.4 54.5 L 584.5 94 L 611.7 133.5 L 621.3 133.8 L 631 134.1 L 631 34 L 612 34 L 611.8 67.8 L 611.5 101.7 L 587.9 68.1 L 564.3 34.5 L 511.2 34.2 L 458 34 L 458 44 Z M 649 44 L 649 54 L 670.3 54 C 692.5 54 696.6 54.6 702.1 58.3 C 710.4 63.9 714.6 78 712.2 92.3 C 710.4 102.5 707 107.7 699.5 111.4 L 693.5 114.4 L 671.3 114.8 L 649 115.2 L 649 134 L 672.5 134 C 698.3 134 703.6 133.3 712.3 128.7 C 726.1 121.5 733.2 106.7 733.2 85 C 733.3 67.1 729.6 55.3 721.2 46.7 C 711 36.2 702.1 34 669.4 34 L 649 34 L 649 44 Z M 770.6 34.8 C 770.1 35.7 735 133 735 133.7 C 735 133.8 739.7 134 745.4 134 L 755.9 134 L 757.8 128.7 C 758.9 125.9 764.8 108.3 770.9 89.7 C 777.1 71.2 782.5 56 782.9 56 C 783.4 56 790 73.5 797.6 95 L 811.5 134 L 822.8 134 C 828.9 134 834 133.7 834 133.2 C 834 132.8 825.3 110.4 814.6 83.5 L 795.2 34.5 L 783.2 34.2 C 776.6 34.1 770.9 34.3 770.6 34.8 Z M 844 43 L 844 51.9 L 868.3 52.2 L 892.7 52.5 L 896.2 55.2 C 902.5 60 903.4 70.4 898.1 76.8 C 893.9 81.7 890.1 82.4 866.3 82.8 L 844 83.2 L 844 134 L 864 134 L 864 99 L 874.8 99 L 885.5 99.1 L 894.6 116.3 L 903.7 133.5 L 914.9 133.8 C 921 133.9 926 133.9 926 133.6 C 926 133.3 920.8 124.7 914.5 114.4 L 903 95.7 L 905.8 94 C 914.1 88.7 919.1 79.5 919.8 67.9 C 920.9 48.9 911.6 37.7 892.6 35.1 C 888.3 34.5 875.7 34 864.4 34 L 844 34 L 844 43 Z" style="fill: url(#gradient-0);"></path>
  <path d="M549 98.8V134h20V91.5l-9.1-13c-5-7.2-9.5-13.4-10-14-.5-.5-.9 13.6-.9 34.3zM458 84v9h74V75h-74v9zm-83 40.5v9.5h73v-19h-73v9.5zm83 0v9.5h74v-19h-74v9.5z" style="fill: url(#gradient-3);"></path>
  <path d="M 69.049 25.78 L 55.549 39.28 L 57.049 42.08 C 58.349 44.28 59.549 44.88 63.949 45.48 C 72.949 46.58 77.749 53.28 74.749 60.38 C 71.849 67.28 65.349 69.88 58.849 66.88 C 54.749 64.88 52.649 61.48 52.749 56.78 C 52.849 54.38 52.049 52.68 49.949 50.68 L 46.949 47.88 L 33.549 61.28 C 19.749 75.08 17.849 78.08 20.049 82.48 C 20.749 83.78 24.849 88.38 29.249 92.88 L 37.149 100.88 C 37.149 100.88 26.449 108.38 24.849 111.88 C 22.049 118.28 22.649 126.58 26.249 132.08 C 29.349 136.78 37.649 141.28 42.949 141.28 C 50.049 141.18 58.549 135.38 61.049 128.88 L 62.149 125.98 L 71.449 135.08 C 84.749 148.18 84.349 148.18 101.749 131.08 C 109.049 123.78 115.049 117.38 115.049 116.78 C 115.049 114.48 109.949 110.88 106.449 110.68 C 101.949 110.58 98.749 108.78 96.749 105.28 C 92.149 97.58 98.049 88.28 107.649 88.28 C 113.049 88.28 118.049 93.58 118.049 99.18 C 118.049 104.38 121.849 108.98 124.749 107.38 C 125.749 106.88 132.049 100.88 138.849 93.98 C 150.649 81.98 151.049 81.48 151.049 77.28 C 151.049 73.28 150.549 72.48 142.549 64.38 C 137.849 59.58 134.049 55.38 134.049 54.98 C 134.049 54.58 134.749 54.28 135.549 54.28 C 138.149 54.28 144.849 47.28 146.649 42.68 C 149.949 33.98 146.549 23.78 138.349 18.28 C 135.349 16.28 133.449 15.78 127.949 15.78 C 122.049 15.78 120.649 16.18 116.949 18.78 C 114.449 20.58 111.749 23.58 110.649 25.98 L 108.549 30.18 L 99.449 21.28 C 91.149 13.08 89.949 12.28 86.449 12.28 C 82.749 12.28 81.749 13.08 69.049 25.78 Z M 99.049 27.78 C 109.749 38.38 113.049 40.28 113.049 35.98 C 113.149 31.98 116.849 25.38 120.249 23.28 C 125.249 20.08 133.949 20.88 138.049 24.78 C 142.149 28.78 143.749 34.08 142.149 39.18 C 140.649 44.28 135.149 49.08 129.949 49.88 C 127.749 50.28 125.649 51.18 125.349 51.98 C 124.949 52.98 128.549 57.28 135.449 64.18 C 141.849 70.58 146.049 75.58 146.049 76.78 C 146.049 77.98 141.749 83.08 135.149 89.68 C 124.249 100.58 123.049 101.08 123.049 95.38 C 123.049 94.38 121.749 91.78 120.149 89.58 C 112.949 79.58 97.549 80.58 92.049 91.38 C 86.749 101.68 92.849 114.18 104.049 116.08 L 108.149 116.78 L 96.749 127.98 C 90.449 134.18 84.749 139.28 84.049 139.28 C 83.349 139.28 77.649 134.18 71.349 127.98 C 60.549 117.38 59.849 116.88 58.449 118.68 C 57.649 119.78 57.049 121.88 57.049 123.38 C 57.049 126.58 53.049 131.68 48.949 133.78 C 40.049 138.48 28.049 131.28 28.049 121.28 C 28.049 113.78 33.449 107.58 40.949 106.58 C 43.349 106.28 45.449 105.38 45.749 104.58 C 46.149 103.68 42.149 98.88 35.149 91.78 C 25.649 82.18 24.049 80.18 24.949 78.58 C 25.449 77.58 30.649 72.08 36.349 66.38 L 46.749 56.08 L 47.449 59.38 C 49.949 72.68 64.949 78.18 75.149 69.58 C 80.949 64.68 82.449 57.78 79.449 50.18 C 77.549 45.68 71.149 40.28 67.549 40.28 C 66.349 40.28 65.049 39.98 64.649 39.58 C 63.749 38.68 85.049 17.28 86.949 17.28 C 87.749 17.28 93.149 21.98 99.049 27.78 Z" style="fill: url(#gradient-1);"></path>
</svg>

<svg xmlns="http://www.w3.org/2000/svg" version="1.0" viewBox="0 0 946 163"><path d="M68 30.5 54.5 44l1.5 2.8c1.3 2.2 2.5 2.8 6.9 3.4 9 1.1 13.8 7.8 10.8 14.9-2.9 6.9-9.4 9.5-15.9 6.5-4.1-2-6.2-5.4-6.1-10.1.1-2.4-.7-4.1-2.8-6.1l-3-2.8L32.5 66C18.7 79.8 16.8 82.8 19 87.2c.7 1.3 4.8 5.9 9.2 10.4l7.9 8-5.1 3.2c-3.8 2.4-5.6 4.3-7.2 7.8-2.8 6.4-2.2 14.7 1.4 20.2 3.1 4.7 11.4 9.2 16.7 9.2 7.1-.1 15.6-5.9 18.1-12.4l1.1-2.9 9.3 9.1c13.3 13.1 12.9 13.1 30.3-4 7.3-7.3 13.3-13.7 13.3-14.3 0-2.3-5.1-5.9-8.6-6.1-4.5-.1-7.7-1.9-9.7-5.4-4.6-7.7 1.3-17 10.9-17 5.4 0 10.4 5.3 10.4 10.9 0 5.2 3.8 9.8 6.7 8.2 1-.5 7.3-6.5 14.1-13.4C149.6 86.7 150 86.2 150 82c0-4-.5-4.8-8.5-12.9-4.7-4.8-8.5-9-8.5-9.4 0-.4.7-.7 1.5-.7 2.6 0 9.3-7 11.1-11.6 3.3-8.7-.1-18.9-8.3-24.4-3-2-4.9-2.5-10.4-2.5-5.9 0-7.3.4-11 3-2.5 1.8-5.2 4.8-6.3 7.2l-2.1 4.2-9.1-8.9c-8.3-8.2-9.5-9-13-9-3.7 0-4.7.8-17.4 13.5zm30 2c10.7 10.6 14 12.5 14 8.2.1-4 3.8-10.6 7.2-12.7 5-3.2 13.7-2.4 17.8 1.5 4.1 4 5.7 9.3 4.1 14.4-1.5 5.1-7 9.9-12.2 10.7-2.2.4-4.3 1.3-4.6 2.1-.4 1 3.2 5.3 10.1 12.2 6.4 6.4 10.6 11.4 10.6 12.6 0 1.2-4.3 6.3-10.9 12.9-10.9 10.9-12.1 11.4-12.1 5.7 0-1-1.3-3.6-2.9-5.8-7.2-10-22.6-9-28.1 1.8-5.3 10.3.8 22.8 12 24.7l4.1.7-11.4 11.2c-6.3 6.2-12 11.3-12.7 11.3-.7 0-6.4-5.1-12.7-11.3-10.8-10.6-11.5-11.1-12.9-9.3-.8 1.1-1.4 3.2-1.4 4.7 0 3.2-4 8.3-8.1 10.4C39 143.2 27 136 27 126c0-7.5 5.4-13.7 12.9-14.7 2.4-.3 4.5-1.2 4.8-2 .4-.9-3.6-5.7-10.6-12.8-9.5-9.6-11.1-11.6-10.2-13.2.5-1 5.7-6.5 11.4-12.2l10.4-10.3.7 3.3c2.5 13.3 17.5 18.8 27.7 10.2 5.8-4.9 7.3-11.8 4.3-19.4-1.9-4.5-8.3-9.9-11.9-9.9-1.2 0-2.5-.3-2.9-.7C62.7 43.4 84 22 85.9 22c.8 0 6.2 4.7 12.1 10.5zm101.5 1.9c-22.8 5.5-38.3 28.9-36.1 54.5 2.4 28.9 21.4 46.3 50.5 46.3 9.8 0 15.5-1 22.6-3.9 11.2-4.7 20.8-16 24-28.4l1.3-4.9-10.1.1h-10.2l-2.8 5.8c-7.5 15.9-31.1 18.9-44.9 5.7-6.9-6.6-10.1-14.1-10.6-25.3-.4-8.6-.2-9.6 2.5-15.5 5.5-11.7 15.2-17.9 27.9-18 12.6-.1 23.4 6.6 26.7 16.5l1.4 4.2 10.1.3 10 .3-1.4-6.2c-3-12.7-10.6-22-22.7-27.7-10.2-4.8-27.1-6.5-38.2-3.8zm102 .8c-3.1 8.3-35.5 98.2-35.5 98.5 0 .2 4.8.2 10.7.1l10.6-.3 13.1-38.7c7.2-21.3 13.4-38.8 13.7-38.8.3 0 6.9 17.4 14.5 38.7l13.9 38.8 11.3.3c6.1.1 11.2-.1 11.2-.5s-8.7-22.9-19.3-49.8l-19.2-49-12.3-.3c-9.2-.2-12.4.1-12.7 1zM375 69.5V105h20V34h-20v35.5zM458 44v10l49.7.2 49.7.3L584.5 94l27.2 39.5 9.6.3 9.7.3V34h-19l-.2 33.8-.3 33.9-23.6-33.6-23.6-33.6-53.1-.3L458 34v10zm191 0v10h21.3c22.2 0 26.3.6 31.8 4.3 8.3 5.6 12.5 19.7 10.1 34-1.8 10.2-5.2 15.4-12.7 19.1l-6 3-22.2.4-22.3.4V134h23.5c25.8 0 31.1-.7 39.8-5.3 13.8-7.2 20.9-22 20.9-43.7.1-17.9-3.6-29.7-12-38.3C711 36.2 702.1 34 669.4 34H649v10zm121.6-9.2c-.5.9-35.6 98.2-35.6 98.9 0 .1 4.7.3 10.4.3h10.5l1.9-5.3c1.1-2.8 7-20.4 13.1-39 6.2-18.5 11.6-33.7 12-33.7.5 0 7.1 17.5 14.7 39l13.9 39h11.3c6.1 0 11.2-.3 11.2-.8 0-.4-8.7-22.8-19.4-49.7l-19.4-49-12-.3c-6.6-.1-12.3.1-12.6.6zM844 43v8.9l24.3.3 24.4.3 3.5 2.7c6.3 4.8 7.2 15.2 1.9 21.6-4.2 4.9-8 5.6-31.8 6l-22.3.4V134h20V99h10.8l10.7.1 9.1 17.2 9.1 17.2 11.2.3c6.1.1 11.1.1 11.1-.2 0-.3-5.2-8.9-11.5-19.2L903 95.7l2.8-1.7c8.3-5.3 13.3-14.5 14-26.1 1.1-19-8.2-30.2-27.2-32.8-4.3-.6-16.9-1.1-28.2-1.1H844v9z"/><path d="M549 98.8V134h20V91.5l-9.1-13c-5-7.2-9.5-13.4-10-14-.5-.5-.9 13.6-.9 34.3zM458 84v9h74V75h-74v9zm-83 40.5v9.5h73v-19h-73v9.5zm83 0v9.5h74v-19h-74v9.5z"/></svg>
